apps/64/atanks.svg

<svg xmlns="http://www.w3.org/2000/svg" style="isolation:isolate" width="256" height="256"><defs><filter id="a" x="-200%" y="-200%" width="400%" height="400%" filterUnits="objectBoundingBox" color-interpolation-filters="sRGB"><feGaussianBlur xmlns="http://www.w3.org/2000/svg" in="SourceGraphic" stdDeviation="4.294"/><feOffset xmlns="http://www.w3.org/2000/svg" dy="4" result="pf_100_offsetBlur"/><feFlood xmlns="http://www.w3.org/2000/svg" flood-color="#000" flood-opacity=".4"/><feComposite xmlns="http://www.w3.org/2000/svg" in2="pf_100_offsetBlur" operator="in" result="pf_100_dropShadow"/><feBlend xmlns="http://www.w3.org/2000/svg" in="SourceGraphic" in2="pf_100_dropShadow"/></filter></defs><path d="M165.685 11.947c74.055 0 84.639 10.557 84.639 84.544v59.251c0 73.986-10.584 84.543-84.639 84.543h-75.37c-74.055 0-84.639-10.557-84.639-84.543V96.491c0-73.987 10.584-84.544 84.639-84.544h75.37z" fill="#76C22B" filter="url(#a)"/><path d="M5.676 126.116v29.626c0 73.986 10.584 84.543 84.639 84.543h75.37c74.055 0 84.639-10.557 84.639-84.543v-29.626H5.676z" fill="#FFF" opacity=".1"/><path d="M83.275 171.349c-5.605-1.365-10.108-5.839-11.723-11.648-1.041-3.742-1.164-3.888-4.111-4.867-12.113-4.023-15.936-20.184-7.143-30.198 1.141-1.3 3.726-3.174 5.744-4.165l3.67-1.802h115.61l3.41 1.541c8.626 3.898 12.987 13.693 10.208 22.928-1.632 5.423-6.85 10.635-12.048 12.034-2.208.595-2.468.902-2.869 3.389-.995 6.189-5.916 11.393-12.006 12.699-3.678.789-85.53.871-88.742.089zm9-9.779c3.754-3.297 3.902-8.273.344-11.597-3.332-3.112-7.781-3.058-10.973.134-7.14 7.14 3.044 18.122 10.629 11.463zm27.171.047c3.588-3.371 3.43-8.688-.353-11.871-2.556-2.151-5.147-2.62-7.965-1.443-5.835 2.438-6.578 11.25-1.203 14.279 2.539 1.431 7.507.927 9.521-.965zm25.531.96c3.992-2.065 5.168-8.34 2.218-11.845-3.171-3.768-8.098-4.033-11.72-.631-6.624 6.223 1.349 16.692 9.502 12.476zm28.147-1.142c1.819-1.667 2.382-2.739 2.631-5.005.813-7.418-8.077-11.621-13.375-6.323-5.022 5.022-1.536 13.45 5.563 13.45 2.339 0 3.291-.39 5.181-2.122zM71.327 108.462c0-3.219 3.027-8.723 5.882-10.696l2.465-1.703.024-6.979.025-6.979 18.569.198c16.648.177 18.746.318 20.289 1.365 2.197 1.493 3.766 4.798 3.782 7.972.012 2.439.097 2.526 4.482 4.585l4.469 2.099H200.5v7.751h-65.151l.366 2.26.367 2.261H71.327v-2.134z" fill="#4D3200"/><path d="M83.275 171.349c-5.605-1.365-10.108-5.839-11.723-11.648-1.041-3.742-1.164-3.888-4.111-4.867-12.113-4.023-15.936-20.184-7.143-30.198 1.141-1.3 3.726-3.174 5.744-4.165l3.67-1.802h115.61l3.41 1.541c8.626 3.898 12.987 13.693 10.208 22.928-1.632 5.423-6.85 10.635-12.048 12.034-2.208.595-2.468.902-2.869 3.389-.995 6.189-5.916 11.393-12.006 12.699-3.678.789-85.53.871-88.742.089zm9-9.779c3.754-3.297 3.902-8.273.344-11.597-3.332-3.112-7.781-3.058-10.973.134-7.14 7.14 3.044 18.122 10.629 11.463zm27.171.047c3.588-3.371 3.43-8.688-.353-11.871-2.556-2.151-5.147-2.62-7.965-1.443-5.835 2.438-6.578 11.25-1.203 14.279 2.539 1.431 7.507.927 9.521-.965zm25.531.96c3.992-2.065 5.168-8.34 2.218-11.845-3.171-3.768-8.098-4.033-11.72-.631-6.624 6.223 1.349 16.692 9.502 12.476zm28.147-1.142c1.819-1.667 2.382-2.739 2.631-5.005.813-7.418-8.077-11.621-13.375-6.323-5.022 5.022-1.536 13.45 5.563 13.45 2.339 0 3.291-.39 5.181-2.122z" fill="#363636"/><g opacity=".4"><linearGradient id="b" x1=".517" x2=".517" y2="1" gradientTransform="matrix(244.65 0 0 228.34 5.68 11.95)" gradientUnits="userSpaceOnUse"><stop offset="0%" stop-color="#fff"/><stop offset="12.5%" stop-opacity=".098" stop-color="#fff"/><stop offset="92.5%" stop-opacity=".098"/><stop offset="100%" stop-opacity=".498"/></linearGradient><path d="M165.068 11.951c4.328-.01 8.656.04 12.984.138 3.875.078 7.75.226 11.626.452 3.453.196 6.905.481 10.348.854 3.06.335 6.118.786 9.148 1.346a80.47 80.47 0 0 1 8.046 1.916 53.64 53.64 0 0 1 7.023 2.584 40.413 40.413 0 0 1 6.06 3.35 35.176 35.176 0 0 1 5.134 4.215 35.072 35.072 0 0 1 4.22 5.119 41.692 41.692 0 0 1 3.363 6.042 55.982 55.982 0 0 1 2.597 7.005 80.224 80.224 0 0 1 1.918 8.037 124.43 124.43 0 0 1 1.348 9.127c.374 3.439.659 6.878.856 10.326.226 3.861.373 7.732.462 11.593.088 4.323.138 8.646.128 12.96v58.21c.01 4.324-.04 8.637-.128 12.96a325.177 325.177 0 0 1-.462 11.593 200.984 200.984 0 0 1-.856 10.326 124.691 124.691 0 0 1-1.348 9.137 80.687 80.687 0 0 1-1.918 8.027 55.414 55.414 0 0 1-2.597 7.005 41.18 41.18 0 0 1-3.364 6.042 34.559 34.559 0 0 1-4.22 5.119 35.177 35.177 0 0 1-5.134 4.215 40.412 40.412 0 0 1-6.059 3.35 55.138 55.138 0 0 1-7.023 2.594 77.806 77.806 0 0 1-8.046 1.906 120 120 0 0 1-9.148 1.346c-3.443.373-6.895.658-10.348.854-3.875.226-7.75.374-11.626.462-4.328.088-8.656.138-12.984.128H90.942c-4.328.01-8.656-.04-12.984-.128a328.387 328.387 0 0 1-11.626-.462 203.003 203.003 0 0 1-10.348-.854 120 120 0 0 1-9.148-1.346 77.806 77.806 0 0 1-8.046-1.906 55.139 55.139 0 0 1-7.023-2.594 40.413 40.413 0 0 1-6.06-3.35 35.176 35.176 0 0 1-5.134-4.215 34.56 34.56 0 0 1-4.22-5.119 41.183 41.183 0 0 1-3.363-6.042 55.415 55.415 0 0 1-2.597-7.005 80.682 80.682 0 0 1-1.918-8.027 124.688 124.688 0 0 1-1.348-9.137 200.993 200.993 0 0 1-.856-10.326 325.212 325.212 0 0 1-.462-11.593 569.197 569.197 0 0 1-.128-12.96v-58.21c-.01-4.314.04-8.637.128-12.96.089-3.86.236-7.732.462-11.593.197-3.448.482-6.887.856-10.326.335-3.055.787-6.101 1.348-9.127a80.219 80.219 0 0 1 1.918-8.037 55.983 55.983 0 0 1 2.597-7.005 41.695 41.695 0 0 1 3.364-6.042 35.072 35.072 0 0 1 4.22-5.119 35.176 35.176 0 0 1 5.134-4.215 40.413 40.413 0 0 1 6.059-3.35 53.64 53.64 0 0 1 7.023-2.584 80.47 80.47 0 0 1 8.046-1.916 125.11 125.11 0 0 1 9.148-1.346c3.443-.373 6.895-.658 10.348-.854 3.875-.226 7.75-.374 11.626-.452 4.328-.098 8.656-.148 12.984-.138h74.126zm.01 4.009c4.298-.01 8.597.039 12.895.127 3.827.089 7.653.236 11.48.452 3.383.197 6.766.472 10.13.845 2.971.315 5.932.747 8.863 1.297a75.943 75.943 0 0 1 7.653 1.818 50.493 50.493 0 0 1 6.501 2.397 37.038 37.038 0 0 1 5.47 3.026 30.383 30.383 0 0 1 4.524 3.724 31.05 31.05 0 0 1 3.738 4.519 37.271 37.271 0 0 1 3.03 5.443 51.46 51.46 0 0 1 2.4 6.494 75.563 75.563 0 0 1 1.829 7.634c.54 2.928.974 5.875 1.298 8.842.374 3.36.65 6.73.846 10.11.217 3.822.374 7.634.453 11.456.088 4.293.137 8.577.137 12.87v58.212c0 4.293-.049 8.577-.137 12.87a317.503 317.503 0 0 1-.453 11.456c-.196 3.38-.472 6.75-.846 10.12a121.689 121.689 0 0 1-1.298 8.832 75.562 75.562 0 0 1-1.83 7.634 50.902 50.902 0 0 1-2.4 6.494 36.767 36.767 0 0 1-3.03 5.443 30.615 30.615 0 0 1-3.737 4.53 30.938 30.938 0 0 1-4.525 3.713 37.038 37.038 0 0 1-5.469 3.026 49.07 49.07 0 0 1-6.501 2.397 75.942 75.942 0 0 1-7.653 1.818c-2.931.55-5.892.982-8.863 1.306-3.364.364-6.747.649-10.13.836-3.827.216-7.653.373-11.48.452-4.298.098-8.597.137-12.895.137H90.932c-4.298 0-8.597-.04-12.895-.137a320.093 320.093 0 0 1-11.48-.452 193.696 193.696 0 0 1-10.13-.836 116.71 116.71 0 0 1-8.863-1.306 75.942 75.942 0 0 1-7.653-1.818 49.07 49.07 0 0 1-6.501-2.397 37.038 37.038 0 0 1-5.47-3.026 30.938 30.938 0 0 1-4.524-3.714 30.615 30.615 0 0 1-3.738-4.529 36.766 36.766 0 0 1-3.03-5.443 50.903 50.903 0 0 1-2.4-6.494 75.567 75.567 0 0 1-1.829-7.634 121.69 121.69 0 0 1-1.298-8.832c-.374-3.37-.65-6.74-.846-10.12a317.535 317.535 0 0 1-.453-11.456 623.851 623.851 0 0 1-.137-12.87V97.014c0-4.293.049-8.577.137-12.87.079-3.822.236-7.634.453-11.456.197-3.38.472-6.75.846-10.11.324-2.967.757-5.914 1.298-8.842a75.568 75.568 0 0 1 1.83-7.634 51.46 51.46 0 0 1 2.4-6.494 37.27 37.27 0 0 1 3.03-5.443 31.05 31.05 0 0 1 3.737-4.52 30.384 30.384 0 0 1 4.525-3.723 37.039 37.039 0 0 1 5.469-3.026 50.494 50.494 0 0 1 6.501-2.397 75.943 75.943 0 0 1 7.653-1.818c2.931-.55 5.892-.982 8.863-1.297 3.364-.373 6.747-.648 10.13-.845a344.71 344.71 0 0 1 11.48-.452c4.298-.088 8.597-.137 12.895-.127H165.078z" fill-rule="evenodd" fill="url(#b)"/></g></svg>

<?xml version="1.0" standalone="no"?><!-- Generator: Gravit.io --><svg xmlns="http://www.w3.org/2000/svg" xmlns:xlink="http://www.w3.org/1999/xlink" style="isolation:isolate" viewBox="0 0 256 256" width="256" height="256"><defs><filter id="RUWpcpo4FLvmzPuRV5lI2whUeqoouiMD" x="-200%" y="-200%" width="400%" height="400%" filterUnits="objectBoundingBox" color-interpolation-filters="sRGB"><feGaussianBlur xmlns="http://www.w3.org/2000/svg" in="SourceGraphic" stdDeviation="4.293609062839028"/><feOffset xmlns="http://www.w3.org/2000/svg" dx="0" dy="4" result="pf_100_offsetBlur"/><feFlood xmlns="http://www.w3.org/2000/svg" flood-color="#000000" flood-opacity="0.4"/><feComposite xmlns="http://www.w3.org/2000/svg" in2="pf_100_offsetBlur" operator="in" result="pf_100_dropShadow"/><feBlend xmlns="http://www.w3.org/2000/svg" in="SourceGraphic" in2="pf_100_dropShadow" mode="normal"/></filter></defs><g filter="url(#RUWpcpo4FLvmzPuRV5lI2whUeqoouiMD)"><linearGradient id="_lgradient_654" x1="0" y1="0" x2="-1.8369701987210297e-16" y2="1" gradientTransform="matrix(244.648,0,0,228.338,5.68,11.95)" gradientUnits="userSpaceOnUse"><stop offset="0.000009999999999999999%" stop-opacity="1" style="stop-color:rgb(224,229,231)"/><stop offset="100%" stop-opacity="1" style="stop-color:rgb(199,206,210)"/></linearGradient><path d=" M 165.689 11.95 C 239.745 11.95 250.328 22.507 250.328 96.494 L 250.328 155.745 C 250.328 229.731 239.745 240.288 165.689 240.288 L 90.319 240.288 C 16.264 240.288 5.68 229.731 5.68 155.745 L 5.68 96.494 C 5.68 22.507 16.264 11.95 90.319 11.95 L 165.689 11.95 Z " id="shape" fill="url(#_lgradient_654)"/></g><g opacity="0.4"><linearGradient id="_lgradient_655" x1="0.5166666666666668" y1="0" x2="0.5166666666666666" y2="1.0000000000000002" gradientTransform="matrix(244.65,0,0,228.34,5.68,11.95)" gradientUnits="userSpaceOnUse"><stop offset="0%" stop-opacity="1" style="stop-color:rgb(255,255,255)"/><stop offset="12.5%" stop-opacity="0.09803922" style="stop-color:rgb(255,255,255)"/><stop offset="92.500001%" stop-opacity="0.09803922" style="stop-color:rgb(0,0,0)"/><stop offset="100%" stop-opacity="0.49803922" style="stop-color:rgb(0,0,0)"/></linearGradient><path d=" M 165.068 11.951 C 169.396 11.941 173.724 11.991 178.052 12.089 C 181.927 12.167 185.803 12.315 189.678 12.541 C 193.131 12.737 196.583 13.022 200.026 13.395 C 203.085 13.73 206.144 14.181 209.174 14.741 C 211.889 15.243 214.574 15.881 217.22 16.657 C 219.62 17.355 221.971 18.219 224.243 19.241 C 226.358 20.184 228.384 21.304 230.302 22.591 C 232.142 23.829 233.863 25.244 235.437 26.806 C 237.001 28.378 238.417 30.088 239.656 31.925 C 240.945 33.841 242.066 35.865 243.02 37.967 C 244.043 40.247 244.909 42.585 245.617 44.972 C 246.394 47.615 247.034 50.297 247.535 53.009 C 248.096 56.035 248.548 59.081 248.883 62.136 C 249.257 65.575 249.542 69.014 249.739 72.462 C 249.965 76.323 250.112 80.194 250.201 84.055 C 250.289 88.378 250.339 92.701 250.329 97.014 L 250.329 155.226 C 250.339 159.549 250.289 163.862 250.201 168.185 C 250.112 172.056 249.965 175.917 249.739 179.778 C 249.542 183.226 249.257 186.675 248.883 190.104 C 248.548 193.159 248.096 196.215 247.535 199.241 C 247.034 201.943 246.394 204.625 245.617 207.268 C 244.909 209.655 244.043 212.003 243.02 214.273 C 242.066 216.385 240.945 218.399 239.656 220.315 C 238.417 222.152 237.001 223.872 235.437 225.434 C 233.863 226.996 232.142 228.411 230.302 229.649 C 228.384 230.936 226.358 232.056 224.243 232.999 C 221.971 234.021 219.62 234.885 217.22 235.593 C 214.574 236.369 211.889 237.007 209.174 237.499 C 206.144 238.068 203.085 238.51 200.026 238.845 C 196.583 239.218 193.131 239.503 189.678 239.699 C 185.803 239.925 181.927 240.073 178.052 240.161 C 173.724 240.249 169.396 240.299 165.068 240.289 L 90.942 240.289 C 86.614 240.299 82.286 240.249 77.958 240.161 C 74.083 240.073 70.207 239.925 66.332 239.699 C 62.879 239.503 59.427 239.218 55.984 238.845 C 52.925 238.51 49.866 238.068 46.836 237.499 C 44.121 237.007 41.436 236.369 38.79 235.593 C 36.39 234.885 34.039 234.021 31.767 232.999 C 29.652 232.056 27.626 230.936 25.708 229.649 C 23.868 228.411 22.147 226.996 20.573 225.434 C 19.009 223.872 17.593 222.152 16.354 220.315 C 15.065 218.399 13.944 216.385 12.99 214.273 C 11.967 212.003 11.101 209.655 10.393 207.268 C 9.616 204.625 8.976 201.943 8.475 199.241 C 7.914 196.215 7.462 193.159 7.127 190.104 C 6.753 186.675 6.468 183.226 6.271 179.778 C 6.045 175.917 5.898 172.056 5.809 168.185 C 5.721 163.862 5.671 159.549 5.681 155.226 L 5.681 97.014 C 5.671 92.701 5.721 88.378 5.809 84.055 C 5.898 80.194 6.045 76.323 6.271 72.462 C 6.468 69.014 6.753 65.575 7.127 62.136 C 7.462 59.081 7.914 56.035 8.475 53.009 C 8.976 50.297 9.616 47.615 10.393 44.972 C 11.101 42.585 11.967 40.247 12.99 37.967 C 13.944 35.865 15.065 33.841 16.354 31.925 C 17.593 30.088 19.009 28.378 20.573 26.806 C 22.147 25.244 23.868 23.829 25.708 22.591 C 27.626 21.304 29.652 20.184 31.767 19.241 C 34.039 18.219 36.39 17.355 38.79 16.657 C 41.436 15.881 44.121 15.243 46.836 14.741 C 49.866 14.181 52.925 13.73 55.984 13.395 C 59.427 13.022 62.879 12.737 66.332 12.541 C 70.207 12.315 74.083 12.167 77.958 12.089 C 82.286 11.991 86.614 11.941 90.942 11.951 L 165.068 11.951 Z  M 165.078 15.96 C 169.376 15.95 173.675 15.999 177.973 16.087 C 181.8 16.176 185.626 16.323 189.452 16.539 C 192.836 16.736 196.219 17.011 199.583 17.384 C 202.554 17.699 205.515 18.131 208.446 18.681 C 211.023 19.153 213.58 19.762 216.099 20.499 C 218.322 21.147 220.495 21.953 222.6 22.896 C 224.509 23.751 226.338 24.763 228.069 25.922 C 229.692 27.013 231.207 28.26 232.594 29.646 C 233.981 31.031 235.23 32.544 236.332 34.165 C 237.492 35.894 238.506 37.712 239.361 39.608 C 240.306 41.72 241.112 43.892 241.761 46.102 C 242.509 48.617 243.109 51.162 243.591 53.736 C 244.132 56.664 244.565 59.611 244.889 62.578 C 245.263 65.938 245.539 69.308 245.735 72.688 C 245.952 76.51 246.109 80.322 246.188 84.144 C 246.276 88.437 246.325 92.721 246.325 97.014 C 246.325 97.014 246.325 97.014 246.325 97.014 L 246.325 155.226 C 246.325 155.226 246.325 155.226 246.325 155.226 C 246.325 159.519 246.276 163.803 246.188 168.096 C 246.109 171.918 245.952 175.74 245.735 179.552 C 245.539 182.932 245.263 186.302 244.889 189.672 C 244.565 192.629 244.132 195.576 243.591 198.504 C 243.109 201.078 242.509 203.623 241.761 206.138 C 241.112 208.358 240.306 210.52 239.361 212.632 C 238.506 214.528 237.492 216.356 236.332 218.075 C 235.23 219.706 233.981 221.219 232.594 222.604 C 231.207 223.98 229.692 225.227 228.069 226.318 C 226.338 227.477 224.509 228.489 222.6 229.344 C 220.495 230.297 218.322 231.093 216.099 231.741 C 213.58 232.478 211.023 233.087 208.446 233.559 C 205.515 234.109 202.554 234.541 199.583 234.865 C 196.219 235.229 192.836 235.514 189.452 235.701 C 185.626 235.917 181.8 236.074 177.973 236.153 C 173.675 236.251 169.376 236.29 165.078 236.29 C 165.078 236.29 165.078 236.29 165.068 236.29 L 90.942 236.29 C 90.932 236.29 90.932 236.29 90.932 236.29 C 86.634 236.29 82.335 236.251 78.037 236.153 C 74.21 236.074 70.384 235.917 66.558 235.701 C 63.174 235.514 59.791 235.229 56.427 234.865 C 53.456 234.541 50.495 234.109 47.564 233.559 C 44.987 233.087 42.43 232.478 39.911 231.741 C 37.688 231.093 35.515 230.297 33.41 229.344 C 31.501 228.489 29.672 227.477 27.941 226.318 C 26.318 225.227 24.803 223.98 23.416 222.604 C 22.029 221.219 20.78 219.706 19.678 218.075 C 18.518 216.356 17.504 214.528 16.649 212.632 C 15.704 210.52 14.898 208.358 14.249 206.138 C 13.501 203.623 12.901 201.078 12.419 198.504 C 11.878 195.576 11.445 192.629 11.121 189.672 C 10.747 186.302 10.472 182.932 10.275 179.552 C 10.058 175.74 9.901 171.918 9.822 168.096 C 9.734 163.803 9.685 159.519 9.685 155.226 C 9.685 155.226 9.685 155.226 9.685 155.226 L 9.685 97.014 C 9.685 97.014 9.685 97.014 9.685 97.014 C 9.685 92.721 9.734 88.437 9.822 84.144 C 9.901 80.322 10.058 76.51 10.275 72.688 C 10.472 69.308 10.747 65.938 11.121 62.578 C 11.445 59.611 11.878 56.664 12.419 53.736 C 12.901 51.162 13.501 48.617 14.249 46.102 C 14.898 43.892 15.704 41.72 16.649 39.608 C 17.504 37.712 18.518 35.894 19.678 34.165 C 20.78 32.544 22.029 31.031 23.416 29.646 C 24.803 28.26 26.318 27.013 27.941 25.922 C 29.672 24.763 31.501 23.751 33.41 22.896 C 35.515 21.953 37.688 21.147 39.911 20.499 C 42.43 19.762 44.987 19.153 47.564 18.681 C 50.495 18.131 53.456 17.699 56.427 17.384 C 59.791 17.011 63.174 16.736 66.558 16.539 C 70.384 16.323 74.21 16.176 78.037 16.087 C 82.335 15.999 86.634 15.95 90.932 15.96 C 90.932 15.96 90.932 15.96 90.942 15.96 L 165.068 15.96 C 165.078 15.96 165.078 15.96 165.078 15.96 Z " fill-rule="evenodd" id="highlight" fill="url(#_lgradient_655)"/></g><g id="icons"/><g id="Group"><g id="Group"><path d=" M 93.476 103.833 L 112.464 115.917 L 146.988 109.012 C 146.988 109.012 152.167 101.634 152.167 100.381 L 152.167 93.476 C 152.167 91.56 136.821 83.119 134.905 83.119 L 93.476 83.119 C 91.56 83.119 90.024 84.655 90.024 86.571 L 90.024 100.381 C 90.024 102.297 91.56 103.833 93.476 103.833 Z " id="Path" fill="rgb(153,95,26)"/><path d=" M 165.976 107.286 C 172.881 107.286 183.238 131.452 183.238 131.452 L 58.952 131.452 L 58.952 121.095 C 58.952 121.095 58.952 114.204 65.857 114.204 C 72.762 114.204 159.071 107.286 165.976 107.286 Z  M 165.976 179.786 L 90.024 179.786 C 80.623 179.786 55.5 164.681 55.5 148.714 C 55.5 139.531 63.565 131.452 72.762 131.452 L 183.238 131.452 C 192.435 131.452 200.5 139.531 200.5 148.714 C 200.5 164.681 175.391 179.786 165.976 179.786 Z  M 152.167 93.476 L 190.143 93.476 L 190.143 100.381 L 152.167 100.381 L 152.167 93.476 Z  M 83.119 90.024 L 90.024 90.024 L 90.024 96.929 L 83.119 96.929 L 83.119 90.024 Z " id="Compound Path" fill="rgb(153,95,26)"/><path d=" M 190.143 90.024 L 183.238 93.476 L 183.238 100.395 L 190.143 103.833 L 200.5 103.833 L 200.5 90.024 L 190.143 90.024 Z  M 197.048 100.381 L 190.143 100.381 L 190.143 93.476 L 197.048 93.476 L 197.048 100.381 Z  M 128 83.119 L 128 79.667 C 128 77.751 126.464 76.214 124.548 76.214 L 100.381 76.214 C 98.465 76.214 96.929 77.751 96.929 79.667 L 96.929 83.119 L 128 83.119 Z " id="Compound Path" fill="rgb(153,95,26)"/><path d=" M 183.238 138.357 L 72.762 138.357 C 66.934 138.357 62.405 143.926 62.405 148.714 C 62.405 160.297 84.345 172.881 90.024 172.881 L 165.976 172.881 C 171.655 172.881 193.595 160.297 193.595 148.714 C 193.595 143.926 189.062 138.357 183.238 138.357 Z " id="Path" fill="rgb(86,48,13)"/><path d=" M 186.69 150.44 C 186.69 155.201 182.82 159.071 178.06 159.071 C 173.294 159.068 169.432 155.206 169.429 150.44 C 169.429 145.68 173.299 141.81 178.06 141.81 C 182.82 141.81 186.69 145.68 186.69 150.44 Z  M 86.571 150.44 C 86.571 155.207 82.707 159.071 77.94 159.071 C 73.174 159.071 69.31 155.207 69.31 150.44 C 69.31 145.674 73.174 141.81 77.94 141.81 C 82.707 141.81 86.571 145.674 86.571 150.44 Z  M 103.833 162.524 C 103.833 166.337 100.742 169.429 96.929 169.429 C 93.115 169.429 90.024 166.337 90.024 162.524 C 90.024 158.71 93.115 155.619 96.929 155.619 C 100.742 155.619 103.833 158.71 103.833 162.524 Z  M 124.548 162.524 C 124.548 166.337 121.456 169.429 117.643 169.429 C 113.83 169.429 110.738 166.337 110.738 162.524 C 110.738 158.71 113.83 155.619 117.643 155.619 C 121.456 155.619 124.548 158.71 124.548 162.524 Z  M 165.976 162.524 C 165.976 166.337 162.885 169.429 159.071 169.429 C 155.258 169.429 152.167 166.337 152.167 162.524 C 152.167 158.71 155.258 155.619 159.071 155.619 C 162.885 155.619 165.976 158.71 165.976 162.524 Z  M 145.262 162.524 C 145.262 166.337 142.17 169.429 138.357 169.429 C 134.544 169.429 131.452 166.337 131.452 162.524 C 131.452 158.71 134.544 155.619 138.357 155.619 C 142.17 155.619 145.262 158.71 145.262 162.524 Z  M 165.976 107.286 C 163.995 107.286 58.952 124.548 58.952 124.548 L 58.952 131.452 L 183.238 131.452 C 183.238 131.452 172.881 107.286 165.976 107.286 Z  M 134.905 83.119 L 93.476 83.119 C 91.56 83.119 90.024 84.655 90.024 86.571 L 90.024 100.381 C 90.024 102.297 91.56 103.833 93.476 103.833 L 97.412 106.195 L 93.494 103.833 L 110.738 103.833 L 117.536 110.631 C 128.459 109.82 139.286 109.012 147.958 108.39 C 149.981 105.749 152.167 101.634 152.167 100.381 L 152.167 93.476 C 152.167 91.56 136.821 83.119 134.905 83.119 Z " id="Compound Path" fill="rgb(198,134,50)"/><path d=" M 157.749 118.52 L 162.524 119.21 L 159.071 122.58 L 159.879 127.327 L 155.619 125.086 L 151.359 127.327 L 152.167 122.58 L 148.714 119.207 L 153.489 118.516 L 155.619 114.19 L 157.749 118.52 Z " id="Path" fill="rgb(255,243,224)"/></g></g></svg>
